X: 7
T:Marching Through Georgia
% Nottingham Music Database
S:Kevin Briggs, via EF
M:4/4
L:1/4
K:D
d/2e/2|"D"f3/2e/2 de|"D"fA AA|"G"Bd de|"D"d4|"D"F3/2G/2 AA|"G"BA Bd|
"E7"e3/2d/2 ef|"A7"e4|"D"dd ef|"G"gB B3/2B/2|"D"Ad "F#7"de|"Bm"f4|"E7"e2 ee|\
"A7"ef2e|
"D"d4-|"A7"de fg|"D"a3f|"D"a3f|"G"d3/2d/2 dB|"D"d3f|"D"a3f|"D"a3f|\
"E7"e3/2e/2 ef|
"A7"e4|"D"dd ef|"G"gB B3/2B/2|"D"Ad "F#7"de|"Bm"f4|"E7"e2 ee|"A7"ef2e|"D"d4-|\
"D"d3||<end>
<start>
